website/media/images/svg/news-author-icon.svg

<svg width="16" height="16" viewBox="0 0 16 16" fill="none" xmlns="http://www.w3.org/2000/svg">
<path d="M14 7V13C14 13.551 13.553 14 13 14H3C2.44897 14 2 13.551 2 13V2H9L11 0H2C0.896 0 0 0.896 0 2V13C0 14.657 1.344 16 3 16H13C14.6579 16 16 14.657 16 13V5L14 7Z" fill="#009846"/>
<path d="M4.21503 11.7631L8.21503 10.7631L6.71503 9.26306L5.21503 7.76306L4.21503 11.7631Z" fill="#009846"/>
<path d="M6.008 7.14209L8.836 9.97106L15.791 3.016C15.9 2.908 15.967 2.76703 15.9771 2.62209C15.9891 2.47906 15.9421 2.34706 15.8482 2.25312L13.803 0.209906L13.7251 0.132C13.637 0.044 13.5179 0 13.395 0C13.2449 0 13.0861 0.0630312 12.963 0.188L12.9409 0.210094L10.939 2.21009L6.008 7.14209Z" fill="#009846"/>
</svg>

<svg width="16" height="16" viewBox="0 0 16 16" fill="none" xmlns="http://www.w3.org/2000/svg"><path d="M14 7v6a1 1 0 01-1 1H3c-.551 0-1-.449-1-1V2h7l2-2H2a2 2 0 00-2 2v11a3 3 0 003 3h10a3 3 0 003-3V5l-2 2z" fill="#009846"/><path d="M4.215 11.763l4-1-1.5-1.5-1.5-1.5-1 4zm1.793-4.621l2.828 2.83 6.955-6.956a.621.621 0 00.186-.394.46.46 0 00-.129-.369L13.803.21l-.078-.078a.463.463 0 00-.33-.132.613.613 0 00-.432.188l-.022.022-2.002 2-4.931 4.932z" fill="#009846"/></svg>
